assets/Man in motorized wheelchair/Default/Flat/man_in_motorized_wheelchair_flat_default.svg

<svg width="32" height="32" viewBox="0 0 32 32" fill="none" xmlns="http://www.w3.org/2000/svg">
<path d="M12.9913 26.1681C12.9913 26.0238 12.8743 25.9067 12.7299 25.9067C12.5855 25.9067 12.4685 26.0238 12.4685 26.1681V28.5581C12.4685 28.7025 12.5855 28.8195 12.7299 28.8195C12.8743 28.8195 12.9913 28.7025 12.9913 28.5581V26.1681Z" fill="#635994"/>
<path d="M24.7513 26.1681C24.7513 26.0238 24.6343 25.9067 24.4899 25.9067C24.3455 25.9067 24.2285 26.0238 24.2285 26.1681V28.5581C24.2285 28.7025 24.3455 28.8195 24.4899 28.8195C24.6343 28.8195 24.7513 28.7025 24.7513 28.5581V26.1681Z" fill="#635994"/>
<path d="M24.4272 5.4095C24.4556 5.23434 24.3366 5.06932 24.1615 5.04093C23.9863 5.01254 23.8213 5.13152 23.7929 5.30668L23.1429 9.31668C23.1145 9.49185 23.2335 9.65686 23.4086 9.68525C23.5838 9.71365 23.7488 9.59467 23.7772 9.4195L24.4272 5.4095Z" fill="#321B41"/>
<path d="M6.14165 23.7197C5.98235 23.6415 5.78984 23.7073 5.71165 23.8666C5.63347 24.0258 5.69922 24.2184 5.85852 24.2965L9.66852 26.1665C9.71258 26.1882 9.761 26.1994 9.81008 26.1994H11.4201C11.5975 26.1994 11.7414 26.0556 11.7414 25.8781C11.7414 25.7007 11.5975 25.5568 11.4201 25.5568H9.88468L9.54352 25.3894L8.33984 24.1289L6.30981 23.8022L6.14165 23.7197Z" fill="#321B41"/>
<path d="M21.04 20.9181V21.9381L18.5628 22.4561L16.03 21.9381V20.9181L18.5628 20.2783L21.04 20.9181Z" fill="#CA0B4A"/>
<path d="M11.18 25.218L14.67 23.268V26.648H11.56C11.14 26.648 10.79 26.308 10.79 25.878C10.79 25.608 10.94 25.358 11.18 25.218Z" fill="#CA0B4A"/>
<path d="M26.04 25.218L22.55 23.268V26.648H25.66C26.08 26.648 26.43 26.308 26.43 25.878C26.43 25.608 26.28 25.358 26.04 25.218Z" fill="#CA0B4A"/>
<path d="M21.97 21.938H15.14C14.41 21.938 13.86 22.598 13.99 23.318L14.6 26.748C14.68 27.198 15.08 27.528 15.54 27.528H21.7C22.17 27.528 22.57 27.178 22.64 26.708L23.13 23.268C23.23 22.568 22.68 21.938 21.97 21.938Z" fill="#F92F60"/>
<path d="M18.53 24.9181C17.12 24.9181 15.97 26.0681 15.97 27.4781C15.97 28.8881 17.12 30.0381 18.53 30.0381C19.94 30.0381 21.09 28.8881 21.09 27.4781C21.09 26.0581 19.95 24.9181 18.53 24.9181Z" fill="#9B9B9B"/>
<path d="M23 28.5381C23 29.3581 23.67 30.0281 24.49 30.0281C25.31 30.0281 25.98 29.3581 25.98 28.5381C25.98 27.7181 25.31 27.0481 24.49 27.0481C23.67 27.0481 23 27.7181 23 28.5381Z" fill="#9B9B9B"/>
<path d="M11.24 28.5381C11.24 27.7181 11.91 27.0481 12.73 27.0481C13.55 27.0481 14.22 27.7181 14.22 28.5381C14.22 29.3581 13.55 30.0281 12.73 30.0281C11.91 30.0281 11.24 29.3581 11.24 28.5381Z" fill="#9B9B9B"/>
<path d="M18.53 28.9781C19.3585 28.9781 20.03 28.3066 20.03 27.4781C20.03 26.6497 19.3585 25.9781 18.53 25.9781C17.7016 25.9781 17.03 26.6497 17.03 27.4781C17.03 28.3066 17.7016 28.9781 18.53 28.9781Z" fill="#D3D3D3"/>
<path d="M24.4901 29.4181C24.9761 29.4181 25.3701 29.0241 25.3701 28.5381C25.3701 28.0521 24.9761 27.6581 24.4901 27.6581C24.0041 27.6581 23.6101 28.0521 23.6101 28.5381C23.6101 29.0241 24.0041 29.4181 24.4901 29.4181Z" fill="#D3D3D3"/>
<path d="M13.6101 28.5381C13.6101 29.0241 13.2161 29.4181 12.7301 29.4181C12.2441 29.4181 11.8501 29.0241 11.8501 28.5381C11.8501 28.0521 12.2441 27.6581 12.7301 27.6581C13.2161 27.6581 13.6101 28.0521 13.6101 28.5381Z" fill="#D3D3D3"/>
<path d="M18.5299 28.0781C18.8613 28.0781 19.1299 27.8094 19.1299 27.4781C19.1299 27.1467 18.8613 26.8781 18.5299 26.8781C18.1986 26.8781 17.9299 27.1467 17.9299 27.4781C17.9299 27.8094 18.1986 28.0781 18.5299 28.0781Z" fill="#1C1C1C"/>
<path d="M24.49 29.0181C24.7551 29.0181 24.97 28.8032 24.97 28.5381C24.97 28.273 24.7551 28.0581 24.49 28.0581C24.2249 28.0581 24.01 28.273 24.01 28.5381C24.01 28.8032 24.2249 29.0181 24.49 29.0181Z" fill="#1C1C1C"/>
<path d="M13.21 28.5381C13.21 28.8032 12.9951 29.0181 12.73 29.0181C12.4649 29.0181 12.25 28.8032 12.25 28.5381C12.25 28.273 12.4649 28.0581 12.73 28.0581C12.9951 28.0581 13.21 28.273 13.21 28.5381Z" fill="#1C1C1C"/>
<path d="M21.0498 6.85803L21.0998 8.81803L19.0998 8.87803L19.0698 6.89803L21.0498 6.85803Z" fill="#FCB100"/>
<path d="M9.30005 22.9681L10.45 17.0881C10.66 16.0381 11.22 15.6481 11.96 15.5981L16.41 15.1581H21.05C21.05 15.1581 21.83 18.1581 20.68 18.1581L13.26 18.1681C13.04 18.1681 12.83 18.2981 12.75 18.5081L10.37 24.1881L9.35079 23.9484L9.30005 22.9681Z" fill="#9B9B9B"/>
<path d="M20.31 8.49806C19.06 8.28806 17.87 9.13806 17.66 10.3881L16.5 15.1681L20.58 18.1681L22.2 11.1481C22.41 9.88806 21.56 8.70806 20.31 8.49806Z" fill="#00A6ED"/>
<path d="M15.4099 15.0481H14.8899V16.1481H15.4099V15.0481Z" fill="#321B41"/>
<path d="M15.15 15.298C15.4814 15.298 15.75 15.0294 15.75 14.698C15.75 14.3667 15.4814 14.098 15.15 14.098C14.8187 14.098 14.55 14.3667 14.55 14.698C14.55 15.0294 14.8187 15.298 15.15 15.298Z" fill="#433B6B"/>
<path d="M14.0299 13.568C13.8699 13.628 13.7999 13.808 13.8499 13.968L14.5508 13.7461L14.9099 13.188L14.0299 13.568Z" fill="#D67D00"/>
<path d="M21.39 10.1481L21.18 13.8681C21.15 14.3581 20.75 14.7481 20.27 14.7681L16.05 14.8081C15.76 14.8081 15.48 14.7681 15.21 14.6781L15.08 14.6381L14.5 14.8881C14.35 14.9481 14.17 14.9081 14.08 14.7681C14.05 14.7181 14.03 14.6681 14.03 14.6181C13.87 14.6881 13.67 14.6081 13.6 14.4381C13.53 14.2681 13.61 14.0781 13.78 14.0081L13.85 13.9681L14.9094 13.1883C15.1694 13.0683 16.02 12.9781 16.18 12.9781L19.26 12.8981C19.31 12.8981 19.36 12.8481 19.36 12.7981L19.52 10.0381C19.55 9.52808 19.99 9.12808 20.51 9.15808C21.02 9.18808 21.42 9.62808 21.39 10.1481Z" fill="#FFC83D"/>
<path d="M21.31 12.588C21.4 12.598 21.48 12.518 21.49 12.428L21.6 9.98803C21.63 9.31803 21.11 8.74803 20.44 8.71803C19.77 8.68803 19.2 9.20803 19.17 9.87803L19.06 12.218C19.05 12.348 19.15 12.448 19.28 12.458C19.82 12.498 20.72 12.548 21.31 12.588Z" fill="#3BC6F6"/>
<path d="M10.3699 24.188L9.82989 25.288C9.76989 25.398 9.63989 25.448 9.52989 25.388L6.33989 23.818C6.04989 23.678 6.11989 23.248 6.43989 23.198L9.30989 22.968L10.3699 24.188Z" fill="#533566"/>
<path d="M20.778 2.94225L19.768 2.87225C18.918 2.81225 18.168 3.46225 18.108 4.31225L18.078 4.74225C18.068 4.88225 18.018 5.01225 17.948 5.12225C17.718 5.46225 17.618 5.48225 17.598 5.65225C17.568 5.92225 17.808 6.01225 17.928 6.03225C17.968 6.04225 17.988 6.07225 17.988 6.11225C17.948 7.07225 18.068 7.77225 19.218 7.86225C19.918 7.91225 21.048 7.64225 21.428 6.83225L21.798 5.74225L22.218 4.60225C22.278 3.75225 21.628 3.00225 20.778 2.94225Z" fill="#FFC83D"/>
<path d="M18.422 5.19525C18.362 5.19525 18.3179 5.17176 18.3279 5.09176V5.08176C18.3479 4.80176 18.6079 4.65176 18.8379 4.67176C19.0679 4.69176 19.3079 4.86176 19.2879 5.15176V5.16176C19.2779 5.23176 19.2279 5.28176 19.1679 5.28176L18.7979 5.25676L18.422 5.19525Z" fill="white"/>
<path d="M18.3379 5.21228C18.3279 5.17228 18.3279 5.12228 18.3279 5.08228C18.3379 4.87228 18.4879 4.72228 18.6479 4.73228C18.8079 4.74228 18.9279 4.92228 18.9179 5.13228C18.9179 5.18228 18.9079 5.22228 18.8879 5.26228L18.3379 5.21228Z" fill="#7D4533"/>
<path d="M18.438 5.22223C18.418 5.18223 18.408 5.13223 18.408 5.08223C18.418 4.96223 18.498 4.87223 18.588 4.88223C18.678 4.89223 18.748 4.99223 18.738 5.11223C18.738 5.16223 18.718 5.21223 18.688 5.24223L18.438 5.22223Z" fill="black"/>
<path d="M18.5537 4.96182C18.5683 4.92011 18.5547 4.87744 18.5234 4.86652C18.4922 4.8556 18.455 4.88056 18.4404 4.92227C18.4259 4.96398 18.4394 5.00665 18.4707 5.01757C18.502 5.0285 18.5392 5.00354 18.5537 4.96182Z" fill="white"/>
<path d="M18.9495 6.16686C19.0022 6.18979 19.0264 6.25111 19.0035 6.30384C18.8827 6.58167 18.554 6.73279 18.2665 6.6078C18.2138 6.58487 18.1896 6.52355 18.2125 6.47082C18.2354 6.4181 18.2968 6.39394 18.3495 6.41686C18.522 6.49187 18.7333 6.40299 18.8125 6.22082C18.8354 6.1681 18.8968 6.14394 18.9495 6.16686Z" fill="#990839"/>
<path d="M19.2674 4.65983C19.2196 4.65955 19.1735 4.64217 19.1374 4.61083C18.988 4.4984 18.8042 4.44148 18.6174 4.44983C18.5913 4.45233 18.5649 4.44936 18.54 4.44111C18.5151 4.43287 18.4922 4.41952 18.4727 4.40193C18.4533 4.38434 18.4377 4.36289 18.4269 4.33894C18.4162 4.31499 18.4106 4.28907 18.4104 4.26283C18.4082 4.21059 18.4266 4.15958 18.4615 4.1207C18.4965 4.08182 18.5453 4.05818 18.5974 4.05483C18.887 4.03999 19.1719 4.13257 19.3974 4.31483C19.426 4.34197 19.446 4.37697 19.4548 4.41542C19.4636 4.45387 19.4608 4.49406 19.4468 4.53093C19.4328 4.56781 19.4082 4.59972 19.3761 4.62265C19.344 4.64558 19.3058 4.65852 19.2664 4.65983H19.2674Z" fill="#D37034"/>
<path d="M22.078 2.35229C22.698 2.54229 22.998 3.14229 22.968 3.75229C22.968 3.75229 22.938 4.24229 22.848 4.67229C22.8412 4.69826 22.8344 4.72437 22.8277 4.75052C22.7743 4.95599 22.7201 5.16488 22.658 5.34229C22.588 5.57229 22.448 5.87229 22.298 6.05229C22.168 6.21229 21.888 6.35229 21.628 6.37229C21.4059 6.38938 21.045 6.20937 20.9696 5.91959C21.1186 5.82054 21.2256 5.66109 21.2517 5.47184C21.2835 5.19399 21.1388 4.93504 20.9027 4.82008C20.8615 4.78935 20.8123 4.76868 20.758 4.76229L20.658 4.75229C20.468 4.72229 20.328 4.54229 20.358 4.35229C20.388 4.11229 20.218 3.89229 19.978 3.86229L18.318 3.66229C18.298 3.65229 18.288 3.65229 18.278 3.65229C17.918 3.58229 17.668 3.24229 17.698 2.88229C17.728 2.46229 18.108 2.15229 18.518 2.20229C18.638 2.21229 18.758 2.16229 18.838 2.07229C18.998 1.89229 19.248 1.79229 19.508 1.82229C19.608 1.83229 19.708 1.86229 19.798 1.90229C20.038 2.03229 20.318 2.06229 20.578 1.99229C20.678 1.97229 20.778 1.96229 20.888 1.97229C21.018 1.99229 21.148 2.04229 21.248 2.11229C21.398 2.22229 21.578 2.28229 21.758 2.29229C21.868 2.30229 21.968 2.32229 22.078 2.35229Z" fill="#F1A11E"/>
<path d="M22.6799 5.38809L22.9199 3.89809C23.0299 3.18809 23.6399 2.66809 24.3599 2.66809C25.2599 2.66809 25.9399 3.46809 25.7999 4.34809L25.5599 5.83809C25.4399 6.54809 24.8399 7.06809 24.1199 7.06809C23.2199 7.06809 22.5399 6.26809 22.6799 5.38809Z" fill="#433B6B"/>
<path d="M23.4501 8.02808C22.7301 8.02808 22.1301 8.54808 22.0101 9.25808L20.5797 18.1581H16.3125L15.2148 17.3672L13.9844 18.1581H13.25C12.96 18.1581 12.73 18.3881 12.73 18.6781V20.4081C12.73 20.6981 12.96 20.9281 13.25 20.9281H24.05C24.34 20.9281 24.57 20.6981 24.57 20.4081V18.6781C24.57 18.3981 24.34 18.1581 24.05 18.1581H23.5297L23.7958 16.5072L23.3646 15.642L24.0716 14.7963L24.8901 9.71808C25.0301 8.82808 24.3401 8.02808 23.4501 8.02808Z" fill="#433B6B"/>
<path d="M15.1501 17.5781C15.614 17.5781 15.9901 17.202 15.9901 16.7381C15.9901 16.2742 15.614 15.8981 15.1501 15.8981C14.6861 15.8981 14.3101 16.2742 14.3101 16.7381C14.3101 17.202 14.6861 17.5781 15.1501 17.5781Z" fill="#F92F60"/>
<path d="M17.85 14.7881H24.0659L23.8 16.5281H17.85C17.37 16.5281 16.98 16.1381 16.98 15.6581C16.98 15.1781 17.37 14.7881 17.85 14.7881Z" fill="#635994"/>
<path d="M14.33 16.748H15.97C16.16 16.748 16.32 16.898 16.32 17.098V18.158H13.98V17.098C13.98 16.908 14.14 16.748 14.33 16.748Z" fill="#635994"/>
<path d="M22.5401 16.068C22.7776 16.068 22.9701 15.8755 22.9701 15.638C22.9701 15.4005 22.7776 15.208 22.5401 15.208C22.3026 15.208 22.1101 15.4005 22.1101 15.638C22.1101 15.8755 22.3026 16.068 22.5401 16.068Z" fill="#321B41"/>
</svg>

<svg xmlns="http://www.w3.org/2000/svg" width="32" height="32" fill="none"><path fill="#635994" d="M12.991 26.168a.261.261 0 0 0-.522 0v2.39a.261.261 0 1 0 .522 0v-2.39ZM24.751 26.168a.261.261 0 0 0-.523 0v2.39a.261.261 0 1 0 .523 0v-2.39Z"/><path fill="#321B41" d="M24.427 5.41a.321.321 0 1 0-.634-.103l-.65 4.01a.321.321 0 1 0 .634.102l.65-4.01ZM6.142 23.72a.321.321 0 0 0-.283.577l3.81 1.87a.32.32 0 0 0 .141.032h1.61a.321.321 0 1 0 0-.642H9.885l-.341-.168-1.204-1.26-2.03-.327-.168-.082Z"/><path fill="#CA0B4A" d="M21.04 20.918v1.02l-2.477.518-2.533-.518v-1.02l2.533-.64 2.477.64ZM11.18 25.218l3.49-1.95v3.38h-3.11a.77.77 0 0 1-.77-.77c0-.27.15-.52.39-.66ZM26.04 25.218l-3.49-1.95v3.38h3.11c.42 0 .77-.34.77-.77a.77.77 0 0 0-.39-.66Z"/><path fill="#F92F60" d="M21.97 21.938h-6.83c-.73 0-1.28.66-1.15 1.38l.61 3.43c.08.45.48.78.94.78h6.16c.47 0 .87-.35.94-.82l.49-3.44c.1-.7-.45-1.33-1.16-1.33Z"/><path fill="#9B9B9B" d="M18.53 24.918c-1.41 0-2.56 1.15-2.56 2.56 0 1.41 1.15 2.56 2.56 2.56 1.41 0 2.56-1.15 2.56-2.56 0-1.42-1.14-2.56-2.56-2.56ZM23 28.538c0 .82.67 1.49 1.49 1.49s1.49-.67 1.49-1.49-.67-1.49-1.49-1.49-1.49.67-1.49 1.49ZM11.24 28.538c0-.82.67-1.49 1.49-1.49s1.49.67 1.49 1.49-.67 1.49-1.49 1.49-1.49-.67-1.49-1.49Z"/><path fill="#D3D3D3" d="M18.53 28.978a1.5 1.5 0 1 0 0-3 1.5 1.5 0 0 0 0 3ZM24.49 29.418a.88.88 0 1 0 0-1.76.88.88 0 0 0 0 1.76ZM13.61 28.538a.88.88 0 1 1-1.76 0 .88.88 0 0 1 1.76 0Z"/><path fill="#1C1C1C" d="M18.53 28.078a.6.6 0 1 0 0-1.2.6.6 0 0 0 0 1.2ZM24.49 29.018a.48.48 0 1 0 0-.96.48.48 0 0 0 0 .96ZM13.21 28.538a.48.48 0 1 1-.96 0 .48.48 0 0 1 .96 0Z"/><path fill="#FCB100" d="m21.05 6.858.05 1.96-2 .06-.03-1.98 1.98-.04Z"/><path fill="#9B9B9B" d="m9.3 22.968 1.15-5.88c.21-1.05.77-1.44 1.51-1.49l4.45-.44h4.64s.78 3-.37 3l-7.42.01c-.22 0-.43.13-.51.34l-2.38 5.68-1.02-.24-.05-.98Z"/><path fill="#00A6ED" d="M20.31 8.498c-1.25-.21-2.44.64-2.65 1.89l-1.16 4.78 4.08 3 1.62-7.02c.21-1.26-.64-2.44-1.89-2.65Z"/><path fill="#321B41" d="M15.41 15.048h-.52v1.1h.52v-1.1Z"/><path fill="#433B6B" d="M15.15 15.298a.6.6 0 1 0 0-1.2.6.6 0 0 0 0 1.2Z"/><path fill="#D67D00" d="M14.03 13.568c-.16.06-.23.24-.18.4l.7-.222.36-.558-.88.38Z"/><path fill="#FFC83D" d="m21.39 10.148-.21 3.72c-.03.49-.43.88-.91.9l-4.22.04c-.29 0-.57-.04-.84-.13l-.13-.04-.58.25c-.15.06-.33.02-.42-.12a.298.298 0 0 1-.05-.15.33.33 0 0 1-.43-.18c-.07-.17.01-.36.18-.43l.07-.04 1.06-.78c.26-.12 1.11-.21 1.27-.21l3.08-.08c.05 0 .1-.05.1-.1l.16-2.76c.03-.51.47-.91.99-.88.51.03.91.47.88.99Z"/><path fill="#3BC6F6" d="M21.31 12.588c.09.01.17-.07.18-.16l.11-2.44c.03-.67-.49-1.24-1.16-1.27-.67-.03-1.24.49-1.27 1.16l-.11 2.34c-.01.13.09.23.22.24.54.04 1.44.09 2.03.13Z"/><path fill="#533566" d="m10.37 24.188-.54 1.1c-.06.11-.19.16-.3.1l-3.19-1.57c-.29-.14-.22-.57.1-.62l2.87-.23 1.06 1.22Z"/><path fill="#FFC83D" d="m20.778 2.942-1.01-.07c-.85-.06-1.6.59-1.66 1.44l-.03.43c-.01.14-.06.27-.13.38-.23.34-.33.36-.35.53-.03.27.21.36.33.38.04.01.06.04.06.08-.04.96.08 1.66 1.23 1.75.7.05 1.83-.22 2.21-1.03l.37-1.09.42-1.14c.06-.85-.59-1.6-1.44-1.66Z"/><path fill="#fff" d="M18.422 5.195c-.06 0-.104-.023-.094-.103v-.01c.02-.28.28-.43.51-.41.23.02.47.19.45.48v.01c-.01.07-.06.12-.12.12l-.37-.025-.376-.062Z"/><path fill="#7D4533" d="M18.338 5.212c-.01-.04-.01-.09-.01-.13.01-.21.16-.36.32-.35.16.01.28.19.27.4 0 .05-.01.09-.03.13l-.55-.05Z"/><path fill="#000" d="M18.438 5.222a.32.32 0 0 1-.03-.14c.01-.12.09-.21.18-.2.09.01.16.11.15.23 0 .05-.02.1-.05.13l-.25-.02Z"/><path fill="#fff" d="M18.554 4.962c.014-.042 0-.085-.03-.095-.032-.011-.069.014-.084.055-.014.042 0 .085.03.096.032.01.07-.014.084-.056Z"/><path fill="#990839" d="M18.95 6.167a.104.104 0 0 1 .053.137.568.568 0 0 1-.736.304.104.104 0 0 1 .082-.191c.173.075.384-.014.463-.196a.104.104 0 0 1 .137-.054Z"/><path fill="#D37034" d="M19.267 4.66a.2.2 0 0 1-.13-.05.805.805 0 0 0-.52-.16.189.189 0 0 1-.207-.187.2.2 0 0 1 .187-.208c.29-.015.575.078.8.26a.2.2 0 0 1-.13.345Z"/><path fill="#F1A11E" d="M22.078 2.352c.62.19.92.79.89 1.4 0 0-.03.49-.12.92l-.02.079c-.054.205-.108.414-.17.591-.07.23-.21.53-.36.71-.13.16-.41.3-.67.32-.222.017-.583-.163-.658-.452a.642.642 0 0 0 .282-.448.64.64 0 0 0-.35-.652.3.3 0 0 0-.144-.058l-.1-.01a.357.357 0 0 1-.3-.4.439.439 0 0 0-.38-.49l-1.66-.2c-.02-.01-.03-.01-.04-.01a.729.729 0 0 1-.58-.77.74.74 0 0 1 .82-.68c.12.01.24-.04.32-.13.16-.18.41-.28.67-.25.1.01.2.04.29.08.24.13.52.16.78.09.1-.02.2-.03.31-.02.13.02.26.07.36.14.15.11.33.17.51.18.11.01.21.03.32.06Z"/><path fill="#433B6B" d="m22.68 5.388.24-1.49c.11-.71.72-1.23 1.44-1.23.9 0 1.58.8 1.44 1.68l-.24 1.49a1.46 1.46 0 0 1-1.44 1.23c-.9 0-1.58-.8-1.44-1.68ZM23.45 8.028c-.72 0-1.32.52-1.44 1.23l-1.43 8.9h-4.267l-1.098-.79-1.23.79h-.735c-.29 0-.52.23-.52.52v1.73c0 .29.23.52.52.52h10.8c.29 0 .52-.23.52-.52v-1.73c0-.28-.23-.52-.52-.52h-.52l.266-1.65-.431-.866.707-.846.818-5.078c.14-.89-.55-1.69-1.44-1.69Z"/><path fill="#F92F60" d="M15.15 17.578a.84.84 0 1 0 0-1.68.84.84 0 0 0 0 1.68Z"/><path fill="#635994" d="M17.85 14.788h6.216l-.266 1.74h-5.95a.87.87 0 0 1 0-1.74ZM14.33 16.748h1.64c.19 0 .35.15.35.35v1.06h-2.34v-1.06c0-.19.16-.35.35-.35Z"/><path fill="#321B41" d="M22.54 16.068a.43.43 0 1 0 0-.86.43.43 0 0 0 0 .86Z"/></svg>
